icons/evolvere-blue-folders-flat-vivid-dark-fallback/devices/64/input-mouse.svg

<?xml version="1.0" encoding="UTF-8" standalone="no"?>
<!-- Created with Inkscape (http://www.inkscape.org/) -->

<svg
   xmlns:dc="http://purl.org/dc/elements/1.1/"
   xmlns:cc="http://creativecommons.org/ns#"
   xmlns:rdf="http://www.w3.org/1999/02/22-rdf-syntax-ns#"
   xmlns:svg="http://www.w3.org/2000/svg"
   xmlns="http://www.w3.org/2000/svg"
   xmlns:sodipodi="http://sodipodi.sourceforge.net/DTD/sodipodi-0.dtd"
   xmlns:inkscape="http://www.inkscape.org/namespaces/inkscape"
   width="64"
   height="64"
   id="svg13094"
   version="1.1"
   inkscape:version="0.91+devel r"
   sodipodi:docname="input-mouse.svg">
  <sodipodi:namedview
     id="base"
     pagecolor="#ffffff"
     bordercolor="#666666"
     borderopacity="1.0"
     inkscape:pageopacity="0"
     inkscape:pageshadow="2"
     inkscape:zoom="11.313709"
     inkscape:cx="9.1474441"
     inkscape:cy="33.838746"
     inkscape:document-units="px"
     inkscape:current-layer="svg13094"
     showgrid="true"
     inkscape:snap-bbox="true"
     inkscape:bbox-paths="true"
     inkscape:bbox-nodes="true"
     inkscape:snap-bbox-edge-midpoints="true"
     inkscape:snap-bbox-midpoints="true"
     inkscape:object-paths="true"
     inkscape:snap-intersection-paths="true"
     inkscape:object-nodes="true"
     inkscape:snap-smooth-nodes="true"
     inkscape:snap-midpoints="true"
     inkscape:snap-object-midpoints="true"
     inkscape:snap-center="true"
     showguides="true"
     inkscape:guide-bbox="true"
     inkscape:window-width="1920"
     inkscape:window-height="1023"
     inkscape:window-x="-10"
     inkscape:window-y="35"
     inkscape:window-maximized="1"
     inkscape:snap-global="true"
     fit-margin-top="0"
     fit-margin-left="0"
     fit-margin-right="0"
     fit-margin-bottom="0"
     showborder="true"
     inkscape:showpageshadow="false"
     inkscape:snap-page="true">
    <inkscape:grid
       type="xygrid"
       id="grid3075"
       empspacing="5"
       visible="true"
       enabled="true"
       snapvisiblegridlinesonly="true"
       originx="1.6362304e-08px"
       originy="18px" />
  </sodipodi:namedview>
  <defs
     id="defs13096" />
  <metadata
     id="metadata13099">
    <rdf:RDF>
      <cc:Work
         rdf:about="">
        <dc:format>image/svg+xml</dc:format>
        <dc:type
           rdf:resource="http://purl.org/dc/dcmitype/StillImage" />
        <dc:title></dc:title>
      </cc:Work>
    </rdf:RDF>
  </metadata>
  <path
     inkscape:connector-curvature="0"
     style="color:#000000;display:inline;overflow:visible;visibility:visible;fill:#4f657d;fill-opacity:1;fill-rule:nonzero;stroke:none;stroke-width:2.28571415;marker:none;enable-background:accumulate;opacity:1;stroke-linecap:butt;stroke-linejoin:miter;stroke-miterlimit:4;stroke-dasharray:none;stroke-dashoffset:0;stroke-opacity:1"
     d="M 6.5,0 C 2.899,0 0,1.388013 0,3.09375 L 0,3.90625 0,57.5 0.09375,57.59375 C 0.0402232,57.753417 0,57.92673 0,58.09375 l 0,2.8125 C 0,62.611986 2.899,64 6.5,64 l 51,0 c 3.601,0 6.5,-1.388014 6.5,-3.09375 l 0,-2.8125 c 0,-0.16702 -0.04022,-0.340333 -0.09375,-0.5 L 64,57.5 64,3.90625 64,3.09375 C 64,1.388013 61.101,0 57.5,0 l -51,0 z"
     id="path4234" />
  <path
     style="color:#000000;fill:#162f4d;fill-opacity:0.21824686;fill-rule:nonzero;stroke:none;stroke-width:0.62299293;marker:none;visibility:visible;display:inline;overflow:visible;enable-background:accumulate;opacity:1;stroke-linecap:butt;stroke-linejoin:miter;stroke-miterlimit:4;stroke-dasharray:none;stroke-dashoffset:0;stroke-opacity:1"
     d="M 32 0 L 32 64 L 57.5 64 C 61.101 64 64 62.611986 64 60.90625 L 64 58.09375 C 64 57.92673 63.95978 57.753417 63.90625 57.59375 L 64 57.5 L 64 3.90625 L 64 3.09375 C 64 1.388013 61.101 0 57.5 0 L 32 0 z "
     id="path3901" />
  <g
     id="g3043"
     inkscape:export-filename="folder.png"
     inkscape:export-xdpi="90"
     inkscape:export-ydpi="90"
     transform="translate(-0.62500009,0.082283)" />
  <g
     id="scalable"
     transform="matrix(1.0385892,0,0,1.0385892,1214.7222,1878.8121)"
     inkscape:label="#g3701"
     style="fill:#ffffff" />
  <path
     style="color:#000000;display:inline;overflow:visible;visibility:visible;fill:#162f4d;fill-opacity:0.35241502;fill-rule:nonzero;stroke:none;stroke-width:0.62299293;marker:none;enable-background:accumulate;opacity:1;stroke-linecap:butt;stroke-linejoin:miter;stroke-miterlimit:4;stroke-dasharray:none;stroke-dashoffset:0;stroke-opacity:1"
     d="m 51,35 2,0 0,29 -2,0 z"
     id="rect3950"
     inkscape:connector-curvature="0"
     sodipodi:nodetypes="ccccc" />
  <path
     style="color:#000000;display:inline;overflow:visible;visibility:visible;fill:#779dc9;fill-opacity:0.23076926;fill-rule:nonzero;stroke:none;stroke-width:0.62299293;marker:none;enable-background:accumulate;opacity:1;stroke-linecap:butt;stroke-linejoin:miter;stroke-miterlimit:4;stroke-dasharray:none;stroke-dashoffset:0;stroke-opacity:1"
     d="m 11,36 2,0 0,27.5 -2,0 z"
     id="rect3985"
     inkscape:connector-curvature="0"
     sodipodi:nodetypes="ccccc" />
  <path
     id="path3977"
     d="m 31,0 0,6 -4,0 c -1.108,0 -2,0.892 -2,2 l 0,21 c 0,1.108 0.892,2 2,2 l 4,0 0,5.96875 C 18.586227,36.762608 7.5010991,32.787781 0,26.59375 L 0,29.125 C 8.0223513,35.209919 19.389918,39 32,39 44.610082,39 55.977649,35.209919 64,29.125 l 0,-2.53125 c -7.5011,6.194031 -18.586227,10.168858 -31,10.375 L 33,31 l 4,0 c 1.108,0 2,-0.892 2,-2 L 39,8 C 39,6.892 38.108,6 37,6 l -4,0 0,-6 -2,0 z"
     style="color:#000000;fill:#162f4d;fill-opacity:0.35241502;fill-rule:nonzero;stroke:none;stroke-width:0.62299293;marker:none;visibility:visible;display:inline;overflow:visible;enable-background:accumulate;opacity:1;stroke-linecap:butt;stroke-linejoin:miter;stroke-miterlimit:4;stroke-dasharray:none;stroke-dashoffset:0;stroke-opacity:1"
     inkscape:connector-curvature="0" />
  <rect
     style="color:#000000;fill:#c7ced7;fill-opacity:1;fill-rule:nonzero;stroke:none;stroke-width:0.62299293;marker:none;visibility:visible;display:inline;overflow:visible;enable-background:accumulate"
     id="rect3860"
     width="10"
     height="23"
     x="27"
     y="7"
     rx="2"
     ry="2" />
  <path
     id="path3865"
     d="m 29,7 c -1.108,0 -2,0.892 -2,2 l 0,19 c 0,1.108 0.892,2 2,2 l 1,0 0,-23 -1,0 z"
     style="color:#000000;fill:#ffffff;fill-opacity:0.29159212;fill-rule:nonzero;stroke:none;stroke-width:0.62299293;marker:none;visibility:visible;display:inline;overflow:visible;enable-background:accumulate"
     inkscape:connector-curvature="0" />
  <path
     style="color:#000000;fill:#000000;fill-opacity:0.14132379;fill-rule:nonzero;stroke:none;stroke-width:0.62299293;marker:none;visibility:visible;display:inline;overflow:visible;enable-background:accumulate"
     d="m 35,7 c 1.108,0 2,0.892 2,2 l 0,19 c 0,1.108 -0.892,2 -2,2 l -1,0 0,-23 1,0 z"
     id="rect3855"
     inkscape:connector-curvature="0" />
  <path
     style="color:#000000;fill:#162f4d;fill-opacity:0.35241502;fill-rule:nonzero;stroke:none;stroke-width:0.62299293;marker:none;visibility:visible;display:inline;overflow:visible;enable-background:accumulate;opacity:1;stroke-linecap:butt;stroke-linejoin:miter;stroke-miterlimit:4;stroke-dasharray:none;stroke-dashoffset:0;stroke-opacity:1"
     d="M 36.65625,7.875 C 36.871477,8.1941016 37,8.5845 37,9 l 0,19 c 0,1.108 -0.892,2 -2,2 l -6,0 C 28.5845,30 28.194102,29.871477 27.875,29.65625 29.194915,30.71558 30.569016,31.684515 32,32.5 40.836556,37.53575 48,35.357985 48,27.65625 48,21.370975 43.213847,13.354103 36.65625,7.875 z"
     id="path3990"
     inkscape:connector-curvature="0"
     sodipodi:nodetypes="csssscssc" />
</svg>

<svg xmlns="http://www.w3.org/2000/svg" viewBox="0 0 64 64"><g color="#000"><path d="m6.5 0c-3.601 0-6.5 1.388-6.5 3.094v.813 53.594l.094.094c-.054.16-.094.333-.094.5v2.813c0 1.706 2.899 3.094 6.5 3.094h51c3.601 0 6.5-1.388 6.5-3.094v-2.813c0-.167-.04-.34-.094-.5l.094-.094v-53.594-.813c0-1.706-2.899-3.094-6.5-3.094h-51" fill="#4f657d"/><g fill="#162f4d"><path d="m32 0v64h25.5c3.601 0 6.5-1.388 6.5-3.094v-2.813c0-.167-.04-.34-.094-.5l.094-.094v-53.594-.813c0-1.706-2.899-3.094-6.5-3.094h-25.5" fill-opacity=".218"/><path d="m51 35h2v29h-2z" fill-opacity=".352"/></g><path d="m11 36h2v27.5h-2z" fill-opacity=".231" fill="#779dc9"/><path d="m31 0v6h-4c-1.108 0-2 .892-2 2v21c0 1.108.892 2 2 2h4v5.969c-12.414-.206-23.499-4.181-31-10.375v2.531c8.02 6.085 19.39 9.875 32 9.875 12.61 0 23.978-3.79 32-9.875v-2.531c-7.501 6.194-18.586 10.169-31 10.375v-5.969h4c1.108 0 2-.892 2-2v-21c0-1.108-.892-2-2-2h-4v-6h-2" fill-opacity=".352" fill="#162f4d"/><rect width="10" height="23" x="27" y="7" rx="2" fill="#c7ced7"/><path d="m29 7c-1.108 0-2 .892-2 2v19c0 1.108.892 2 2 2h1v-23h-1" fill="#fff" fill-opacity=".292"/><path d="m35 7c1.108 0 2 .892 2 2v19c0 1.108-.892 2-2 2h-1v-23h1" fill-opacity=".141"/><path d="m36.656 7.875c.215.319.344.71.344 1.125v19c0 1.108-.892 2-2 2h-6c-.416 0-.806-.129-1.125-.344 1.32 1.059 2.694 2.028 4.125 2.844 8.837 5.04 16 2.858 16-4.844 0-6.285-4.786-14.302-11.344-19.781" fill-opacity=".352" fill="#162f4d"/></g></svg>
